public/assets/img/casestudies/wellmee/Step1.svg

<svg fill="none" height="49" viewBox="0 0 48 49" width="48" xmlns="http://www.w3.org/2000/svg"><path d="m38 26.7777c-.5304 0-1.0391.2107-1.4142.5857-.3751.3751-.5858.8838-.5858 1.4143v.78l-2.96-2.96c-1.0452-1.037-2.4577-1.6188-3.93-1.6188s-2.8848.5818-3.93 1.6188l-1.4 1.4-4.96-4.98c-1.0643-.9999-2.4697-1.5564-3.93-1.5564s-2.8657.5565-3.93 1.5564l-2.96 2.98v-11.22c0-.5305.21071-1.0392.58579-1.4143.37507-.375.88378-.5857 1.41421-.5857h8c.5304 0 1.0391-.2108 1.4142-.5858.3751-.3751.5858-.8838.5858-1.4142 0-.5305-.2107-1.03919-.5858-1.41426s-.8838-.58579-1.4142-.58579h-8c-1.5913 0-3.11742.63214-4.24264 1.75735-1.12522 1.1252-1.75736 2.6514-1.75736 4.2427v24c0 1.5912.63214 3.1174 1.75736 4.2426s2.65134 1.7574 4.24264 1.7574h24c1.5913 0 3.1174-.6322 4.2426-1.7574 1.1253-1.1252 1.7574-2.6514 1.7574-4.2426v-10c0-.5305-.2107-1.0392-.5858-1.4143-.3751-.375-.8838-.5857-1.4142-.5857zm-28 14c-.53043 0-1.03914-.2108-1.41421-.5858-.37508-.3751-.58579-.8838-.58579-1.4142v-7.14l5.8-5.78c.2938-.28.6841-.4362 1.09-.4362s.7962.1562 1.09.4362l6.34 6.34 8.58 8.58zm26-2c-.0128.3872-.1379.7624-.36 1.08l-9.02-9.08 1.4-1.38c.1434-.1464.3145-.2627.5034-.342.1889-.0794.3917-.1203.5966-.1203s.4077.0409.5966.1203c.1889.0793.36.1956.5034.342l5.78 5.82zm7.42-17.42-3.42-3.44c.8478-1.3792 1.29-2.9693 1.2761-4.5881-.0139-1.6189-.4834-3.2011-1.3547-4.56552s-2.1093-2.45589-3.5721-3.14943c-1.4629-.69354-3.0914-.96112-4.6993-.77211-1.6078.18902-3.1299.827-4.392 1.84088-1.2621 1.01389-2.2132 2.3627-2.7444 3.89198-.5311 1.5293-.6209 3.1773-.259 4.7552.3619 1.578 1.1609 3.0221 2.3054 4.1671 1.589 1.5989 3.7458 2.5048 6 2.52 1.6122.02 3.1981-.4094 4.58-1.24l3.44 3.46c.1859.1874.4071.3362.6508.4377.2438.1016.5052.1539.7692.1539s.5254-.0523.7692-.1539c.2437-.1015.4649-.2503.6508-.4377.1936-.1866.3475-.4103.4527-.6577.1051-.2474.1594-.5135.1594-.7823 0-.2689-.0543-.535-.1594-.7824-.1052-.2474-.2591-.4711-.4527-.6576zm-7.42-4.58c-.6477.652-1.4744 1.097-2.3753 1.2785-.9009.1816-1.8355.0915-2.6851-.2588-.8497-.3503-1.5762-.945-2.0874-1.7087s-.7841-1.662-.7841-2.581c0-.9191.2729-1.8174.7841-2.5811s1.2377-1.35843 2.0874-1.70871c.8496-.35027 1.7842-.44035 2.6851-.2588s1.7276.62655 2.3753 1.27861c.8635.8692 1.3481 2.0447 1.3481 3.27 0 1.2252-.4846 2.4007-1.3481 3.27z" fill="#00ceba"/></svg>

<svg width="48" height="49" viewBox="0 0 48 49" fill="none" xmlns="http://www.w3.org/2000/svg">
<path d="M38 26.7777C37.4696 26.7777 36.9609 26.9884 36.5858 27.3634C36.2107 27.7385 36 28.2472 36 28.7777V29.5577L33.04 26.5977C31.9948 25.5607 30.5823 24.9789 29.11 24.9789C27.6377 24.9789 26.2252 25.5607 25.18 26.5977L23.78 27.9977L18.82 23.0177C17.7557 22.0178 16.3503 21.4613 14.89 21.4613C13.4297 21.4613 12.0243 22.0178 10.96 23.0177L8 25.9977V14.7777C8 14.2472 8.21071 13.7385 8.58579 13.3634C8.96086 12.9884 9.46957 12.7777 10 12.7777H18C18.5304 12.7777 19.0391 12.5669 19.4142 12.1919C19.7893 11.8168 20 11.3081 20 10.7777C20 10.2472 19.7893 9.73851 19.4142 9.36344C19.0391 8.98837 18.5304 8.77765 18 8.77765H10C8.4087 8.77765 6.88258 9.40979 5.75736 10.535C4.63214 11.6602 4 13.1864 4 14.7777V38.7777C4 40.3689 4.63214 41.8951 5.75736 43.0203C6.88258 44.1455 8.4087 44.7777 10 44.7777H34C35.5913 44.7777 37.1174 44.1455 38.2426 43.0203C39.3679 41.8951 40 40.3689 40 38.7777V28.7777C40 28.2472 39.7893 27.7385 39.4142 27.3634C39.0391 26.9884 38.5304 26.7777 38 26.7777ZM10 40.7777C9.46957 40.7777 8.96086 40.5669 8.58579 40.1919C8.21071 39.8168 8 39.3081 8 38.7777V31.6377L13.8 25.8577C14.0938 25.5777 14.4841 25.4215 14.89 25.4215C15.2959 25.4215 15.6862 25.5777 15.98 25.8577L22.32 32.1977L30.9 40.7777H10ZM36 38.7777C35.9872 39.1649 35.8621 39.5401 35.64 39.8577L26.62 30.7777L28.02 29.3977C28.1634 29.2513 28.3345 29.135 28.5234 29.0557C28.7123 28.9763 28.9151 28.9354 29.12 28.9354C29.3249 28.9354 29.5277 28.9763 29.7166 29.0557C29.9055 29.135 30.0766 29.2513 30.22 29.3977L36 35.2177V38.7777ZM43.42 21.3577L40 17.9177C40.8478 16.5385 41.29 14.9484 41.2761 13.3296C41.2622 11.7107 40.7927 10.1285 39.9214 8.76408C39.0501 7.39966 37.8121 6.30819 36.3493 5.61465C34.8864 4.92111 33.2579 4.65353 31.65 4.84254C30.0422 5.03156 28.5201 5.66954 27.258 6.68342C25.9959 7.69731 25.0448 9.04612 24.5136 10.5754C23.9825 12.1047 23.8927 13.7527 24.2546 15.3306C24.6165 16.9086 25.4155 18.3527 26.56 19.4977C28.149 21.0966 30.3058 22.0025 32.56 22.0177C34.1722 22.0377 35.7581 21.6083 37.14 20.7777L40.58 24.2377C40.7659 24.4251 40.9871 24.5739 41.2308 24.6754C41.4746 24.777 41.736 24.8293 42 24.8293C42.264 24.8293 42.5254 24.777 42.7692 24.6754C43.0129 24.5739 43.2341 24.4251 43.42 24.2377C43.6136 24.0511 43.7675 23.8274 43.8727 23.58C43.9778 23.3326 44.0321 23.0665 44.0321 22.7977C44.0321 22.5288 43.9778 22.2627 43.8727 22.0153C43.7675 21.7679 43.6136 21.5442 43.42 21.3577ZM36 16.7777C35.3523 17.4297 34.5256 17.8747 33.6247 18.0562C32.7238 18.2378 31.7892 18.1477 30.9396 17.7974C30.0899 17.4471 29.3634 16.8524 28.8522 16.0887C28.341 15.325 28.0681 14.4267 28.0681 13.5077C28.0681 12.5886 28.341 11.6903 28.8522 10.9266C29.3634 10.1629 30.0899 9.56817 30.9396 9.21789C31.7892 8.86762 32.7238 8.77754 33.6247 8.95909C34.5256 9.14064 35.3523 9.58564 36 10.2377C36.8635 11.1069 37.3481 12.2824 37.3481 13.5077C37.3481 14.7329 36.8635 15.9084 36 16.7777Z" fill="#00CEBA"/>
</svg>
